icons/icn_buscaCasa.svg

<svg width="24" xmlns="http://www.w3.org/2000/svg" height="24" id="screenshot-fb6cc112-2b27-8045-8006-5aab63cce847" viewBox="0 0 24 24" xmlns:xlink="http://www.w3.org/1999/xlink" fill="none" version="1.1"><g id="shape-fb6cc112-2b27-8045-8006-5aab63cce847"><g class="frame-container-wrapper"><g class="frame-container-blur"><g class="frame-container-shadows"><g fill="none"><g class="fills" id="fills-fb6cc112-2b27-8045-8006-5aab63cce847"><rect rx="0" ry="0" x="0" y="0" width="24" height="24.000000000000455" transform="matrix(1, 0, 0, 1, 0, 0)" class="frame-background"/></g><g class="frame-children"><g id="shape-fb6cc112-2b27-8045-8006-5aab4f0a79d9" width="24" height="24" version="1.1" rx="0" ry="0" style="fill: rgb(0, 0, 0);"><g id="shape-fb6cc112-2b27-8045-8006-5aab4f0def4d" style="opacity: 1;"><g class="fills" id="fills-fb6cc112-2b27-8045-8006-5aab4f0def4d"><path d="M13.932177543640137,2.001953125C9.482226371765137,2.001953125,5.858447074890137,5.646728515625,5.858447074890137,10.12109375C5.858447074890137,12.244873046875,6.676806449890137,14.1839599609375,8.010790824890137,15.634765625L2.514941453933716,20.44921875C2.211962938308716,20.716552734375,2.182421922683716,21.178466796875,2.448535203933716,21.482421875C2.715869188308716,21.7852783203125,3.177783250808716,21.8150634765625,3.481738328933716,21.548828125L9.106249809265137,16.630859375C10.454150199890137,17.6468505859375,12.124560356140137,18.25,13.932177543640137,18.25C18.382373809814453,18.25,22.002246856689453,14.595458984375,22.002246856689453,10.12109375C22.002246856689453,5.646728515625,18.382373809814453,2.001953125,13.932177543640137,2.001953125ZM13.932177543640137,3.552734375C17.537403106689453,3.552734375,20.443653106689453,6.4791259765625,20.443653106689453,10.12109375C20.443653106689453,13.7630615234375,17.537403106689453,16.69921875,13.932177543640137,16.69921875C10.327197074890137,16.69921875,7.415087699890137,13.7630615234375,7.415087699890137,10.12109375C7.415087699890137,6.4791259765625,10.327197074890137,3.552734375,13.932177543640137,3.552734375Z" style="display: inline; stroke-linecap: round; stroke-linejoin: bevel; fill: rgb(0, 0, 0); fill-opacity: 1;"/></g></g><g id="shape-fb6cc112-2b27-8045-8006-5aab4f0e5a1f" style="opacity: 1;"><g class="fills" id="fills-fb6cc112-2b27-8045-8006-5aab4f0e5a1f"><path d="M13.848193168640137,5.03125C13.696093559265137,5.0550537109375,13.555468559265137,5.1260986328125,13.446093559265137,5.234375L9.446093559265137,9.236328125C8.981982231140137,9.697265625,9.307665824890137,10.4892578125,9.961718559265137,10.490234375L11.231249809265137,10.490234375L11.231249809265137,13.75390625C11.232958793640137,14.1566162109375,11.558886528015137,14.4827880859375,11.961718559265137,14.484375L15.963427543640137,14.484375C16.366260528564453,14.4827880859375,16.692188262939453,14.1566162109375,16.693897247314453,13.75390625L16.693897247314453,10.490234375L17.963428497314453,10.490234375C18.618457794189453,10.4910888671875,18.945850372314453,9.6978759765625,18.481006622314453,9.236328125L14.479052543640137,5.234375C14.313281059265137,5.070068359375,14.078906059265137,4.9947509765625,13.848193168640137,5.03125ZM13.963427543640137,6.79296875L16.148975372314453,8.970703125L11.776171684265137,8.970703125ZM12.694140434265137,10.439453125L15.232958793640137,10.439453125L15.232958793640137,13.0234375L12.694140434265137,13.0234375Z" style="display: inline; stroke-linecap: round; stroke-linejoin: round; fill: rgb(0, 0, 0); fill-opacity: 1;"/></g></g></g></g></g></g></g></g></g></svg>

<svg fill="none" viewBox="0 0 24 24"><g class="frame-container-wrapper"><g class="frame-container-blur"><g class="frame-container-shadows"><g class="fills"><rect width="24" height="24" class="frame-background" rx="0" ry="0"/></g><g fill="#000" class="frame-children"><path d="M13.9322 2.002c-4.45 0-8.0738 3.6447-8.0738 8.119 0 2.1239.8184 4.063 2.1524 5.5138l-5.4959 4.8144a.7335.7335 0 0 0-.0664 1.0332.7335.7335 0 0 0 1.0332.0664l5.6245-4.918c1.348 1.016 3.0184 1.6192 4.826 1.6192 4.4502 0 8.07-3.6545 8.07-8.129 0-4.4743-3.6198-8.119-8.07-8.119Zm0 1.5507c3.6052 0 6.5115 2.9264 6.5115 6.5684 0 3.642-2.9063 6.5781-6.5115 6.5781-3.605 0-6.5171-2.9361-6.5171-6.5781s2.9121-6.5684 6.517-6.5684Z" class="fills"/><path d="M13.8482 5.0313a.7324.7324 0 0 0-.4021.203l-4 4.002c-.4641.461-.1384 1.253.5156 1.254h1.2695v3.2636a.7334.7334 0 0 0 .7305.7305h4.0017a.7334.7334 0 0 0 .7305-.7305v-3.2637h1.2695c.655.0009.9825-.7923.5176-1.2539l-4.002-4.002a.7333.7333 0 0 0-.6308-.203Zm.1152 1.7617 2.1856 2.1777h-4.3728Zm-1.2693 3.6465h2.5389v2.584H12.694Z" class="fills"/></g></g></g></g></svg>
